static/logos/narrativeBi-wordmark-color.svg

<svg width="100" height="19" viewBox="0 0 100 19" fill="none" xmlns="http://www.w3.org/2000/svg">
<g clip-path="url(#clip0_1_1884)">
<path fill-rule="evenodd" clip-rule="evenodd" d="M2.11192 6.3253C2.11265 5.6941 2.24562 5.07004 2.50227 4.49337C2.75892 3.91669 3.13356 3.4002 3.60204 2.97717C4.07052 2.55414 4.62243 2.23397 5.22222 2.0373C5.82201 1.84062 6.45637 1.7718 7.08433 1.83528C7.71234 1.89876 8.32011 2.09312 8.86842 2.40584C9.41668 2.71856 9.89336 3.1427 10.2677 3.65092C10.6421 4.15914 10.9058 4.74016 11.0419 5.35652C11.1779 5.97289 11.1833 6.61096 11.0577 7.22952C9.87649 6.0688 8.28607 5.41941 6.62999 5.42169C4.97394 5.41941 3.38348 6.0688 2.20228 7.22952C2.14199 6.93187 2.11172 6.62898 2.11192 6.3253ZM0.913127 9.03614C0.511154 8.18904 0.303291 7.26295 0.304695 6.3253C0.304695 2.83193 3.13662 0 6.62999 0C10.1234 0 12.9553 2.83193 12.9553 6.3253C12.9553 7.29518 12.7366 8.21446 12.3469 9.03614C12.7488 9.88325 12.9567 10.8093 12.9553 11.747C12.9553 15.2404 10.1234 18.0723 6.62999 18.0723C3.13662 18.0723 0.304695 15.2404 0.304695 11.747C0.304695 10.7771 0.523369 9.85783 0.913127 9.03614ZM11.0577 10.8428C11.191 11.499 11.1767 12.1766 11.016 12.8266C10.8552 13.4766 10.552 14.0827 10.1282 14.6011C9.70445 15.1196 9.17077 15.5373 8.56577 15.8242C7.96077 16.1111 7.29957 16.2599 6.62999 16.2599C5.96042 16.2599 5.29921 16.1111 4.6942 15.8242C4.08919 15.5373 3.55552 15.1196 3.13177 14.6011C2.70803 14.0827 2.40481 13.4766 2.24406 12.8266C2.08331 12.1766 2.06904 11.499 2.20228 10.8428C3.38348 12.0035 4.97394 12.6529 6.62999 12.6506C8.35408 12.6506 9.91674 11.9608 11.0577 10.8428ZM10.2444 9.03614C9.82402 9.59771 9.27836 10.0534 8.65089 10.3672C8.02348 10.6809 7.33149 10.8439 6.62999 10.8434C5.92849 10.8439 5.23654 10.6808 4.6091 10.3671C3.98166 10.0534 3.43602 9.59765 3.01554 9.03614C3.43602 8.47464 3.98166 8.01892 4.6091 7.70518C5.23654 7.39151 5.92849 7.22837 6.62999 7.22892C7.33149 7.22837 8.02348 7.39138 8.65089 7.70512C9.27836 8.01885 9.82402 8.47458 10.2444 9.03614Z" fill="#8D80D1"/>
<path d="M29.2908 14.5012V5.19036L30.4185 5.00241L30.3462 4.32289L28.727 4.36626L27.1511 4.32289L27.1077 5.00241L28.1776 5.19036V11.5229L27.7727 10.2795L23.1318 4.32289L21.5848 4.36626L20.4137 4.32289L20.3414 5.00241L21.4402 5.23373V13.6048L20.3125 13.7928L20.3848 14.4723L22.0185 14.4289L23.5944 14.4723L23.6378 13.7928L22.5679 13.6048V6.11566L22.9005 7.44578L28.2065 14.5012H29.2908ZM34.8065 13.4602L35.2691 14.6169L37.7703 14.1108L37.6691 13.4313H36.9751C36.845 13.1855 36.7872 12.9253 36.7872 12.347V9.54216C36.7872 7.8506 36.1077 7.31566 34.0836 7.31566L31.0764 8.54457V9.75903H32.8836L33.1005 8.48674C33.3731 8.34566 33.6754 8.27138 33.9824 8.26988C34.4884 8.26988 34.7197 8.53012 34.7197 9.41204V10.2361L31.5101 11.2626C31.1197 11.6385 30.8595 12.1157 30.8595 12.7373C30.8595 13.9229 31.8137 14.6747 33.1438 14.6747L34.8065 13.4602ZM33.6065 13.4458C33.2595 13.4458 32.8691 13.1566 32.8691 12.4626C32.8691 12.1301 32.9703 11.7398 33.1872 11.5084L34.7197 10.9012V12.8964L34.3438 13.1566C34.1559 13.2723 33.8956 13.4458 33.6065 13.4458ZM40.2233 14.4289L42.6812 14.4723L42.7535 13.7639L41.2215 13.6048V10.5542L41.4233 10.3229C41.7992 9.88915 42.1613 9.52771 42.5077 9.36867H43.983V7.38795H42.6378L41.1059 9.73012L40.9468 7.48915L40.1661 7.53253L38.2715 7.9518L38.3438 8.66024L39.1968 8.60241V13.6193L38.3444 13.7928L38.4167 14.4723L40.2239 14.4289H40.2233ZM46.5348 14.4289L48.9926 14.4723L49.0649 13.7639L47.5324 13.6048V10.5542L47.7348 10.3229C48.1107 9.88915 48.4721 9.52771 48.8191 9.36867H50.2938V7.38795H48.9492L47.4167 9.73012L47.2577 7.48915L46.477 7.53253L44.583 7.9518L44.6553 8.66024L45.5083 8.60241V13.6193L44.6553 13.7928L44.7276 14.4723L46.5348 14.4289ZM54.7848 13.4602L55.2474 14.6169L57.7486 14.1108L57.6474 13.4313H56.9535C56.8233 13.1855 56.7655 12.9253 56.7655 12.347V9.54216C56.7655 7.8506 56.086 7.31566 54.0619 7.31566L51.0547 8.54457V9.75903H52.8619L53.0788 8.48674C53.3514 8.34566 53.6537 8.27138 53.9607 8.26988C54.4667 8.26988 54.698 8.53012 54.698 9.41204V10.2361L51.4884 11.2626C51.098 11.6385 50.8378 12.1157 50.8378 12.7373C50.8378 13.9229 51.792 14.6747 53.1221 14.6747L54.7848 13.4602ZM53.5848 13.4458C53.2378 13.4458 52.8474 13.1566 52.8474 12.4626C52.8474 12.1301 52.9486 11.7398 53.1655 11.5084L54.698 10.9012V12.8964L54.3221 13.1566C54.1342 13.2723 53.8739 13.4458 53.5848 13.4458ZM63.3408 13.6482L63.0372 12.9976C62.5312 13.2723 62.2276 13.359 61.8806 13.359C61.4902 13.359 61.1577 12.9976 61.1577 12.4626V8.58795H63.095V7.80723H61.1432V5.68192H60.4637L59.148 6.7518V7.74939H58.3818L57.8179 8.32771V8.58795H59.1336V12.3904C59.1336 13.9229 59.8998 14.6747 61.4179 14.6747L63.3408 13.6482ZM66.5173 6.20241L66.7053 5.39277L66.6041 4.40964L66.1414 4.32289L64.7679 4.40964L64.5944 5.23373L64.6956 6.20241L65.1727 6.30361L66.5173 6.20241ZM65.7221 14.4289L67.5149 14.4723L67.5872 13.7928L66.7197 13.6193V7.48915L65.8233 7.53253L63.7848 7.93735L63.8571 8.61686L64.6956 8.57349V13.6193L63.8571 13.7928L63.9294 14.4723L65.7221 14.4289ZM72.4607 14.2699L74.6872 8.37108L75.5402 8.19759L75.4679 7.51807L74.3258 7.54698L72.9812 7.51807L72.9089 8.19759L73.5884 8.37108L71.9836 13.2578L71.8679 12.0867L70.5233 8.37108L71.3041 8.19759L71.2318 7.51807L69.5836 7.56144L67.6607 7.51807L67.5884 8.19759L68.3113 8.37108L70.8992 14.6747L72.4607 14.2699ZM81.6794 10.0916C81.6794 8.57349 80.8986 7.31566 78.8745 7.31566C76.2143 8.00963 75.4047 9.48433 75.4047 11.2193C75.4047 13.3157 76.9227 14.6747 78.9179 14.6747C80.0745 14.3132 80.8986 13.9518 81.6649 13.2867L81.3468 12.6361C80.9276 12.9108 80.2191 13.2145 79.5396 13.2145C78.2962 13.2145 77.5733 12.2313 77.4866 10.8867H81.6794V10.0916ZM77.4866 10.1783C77.5589 8.8771 77.9637 8.2265 78.6432 8.2265C79.4384 8.2265 79.6553 8.94939 79.6553 10.0482L77.4866 10.1783ZM87.8595 14.4289L90.8523 14.4723C93.0498 14.1687 94.6836 13.359 94.6836 11.5518C94.6836 10.1349 93.6282 9.12289 91.5896 9.02168C93.1221 8.71807 94.1342 7.76385 94.1342 6.57831C94.1342 5.46506 93.2956 4.30843 91.4884 4.32289L87.8595 4.36626L86.0378 4.32289L85.9655 5.00241L87.0932 5.19036V13.6048L85.9655 13.7928L86.0378 14.4723L87.8595 14.4289ZM89.3053 5.14698L90.3029 5.04578C91.4306 5.06024 91.8932 5.76867 91.8932 6.76626C91.8932 7.87951 91.2571 8.79036 90.245 8.79036H89.3053V5.14698ZM89.3053 13.6482V9.49879H90.4474C91.7053 9.49879 92.4426 10.3807 92.4426 11.5807C92.4426 12.5494 91.9077 13.7349 90.2595 13.7349L89.3053 13.6482ZM97.3559 14.4289L99.5101 14.4723L99.5824 13.7783L98.4547 13.5904V5.19036L99.5824 5.00241L99.5101 4.32289L97.3559 4.36626L95.1872 4.32289L95.1149 5.00241L96.2426 5.19036V13.5904L95.1149 13.7783L95.1872 14.4723L97.3559 14.4289Z" fill="#2B2A45"/>
</g>
<defs>
<clipPath id="clip0_1_1884">
<rect width="100" height="18.0723" fill="white"/>
</clipPath>
</defs>
</svg>

<svg xmlns="http://www.w3.org/2000/svg" width="336.842" height="64" fill="none" viewBox="0 0 100 19"><g clip-path="url(#a)"><path fill="#8D80D1" fill-rule="evenodd" d="M2.112 6.325a4.518 4.518 0 1 1 8.946.905A6.305 6.305 0 0 0 6.63 5.422 6.305 6.305 0 0 0 2.202 7.23a4.54 4.54 0 0 1-.09-.905ZM.913 9.036a6.325 6.325 0 1 1 11.434 0 6.325 6.325 0 1 1-11.434 0Zm10.145 1.807a4.518 4.518 0 1 1-8.856 0A6.305 6.305 0 0 0 6.63 12.65c1.724 0 3.287-.69 4.428-1.808Zm-.814-1.807a4.51 4.51 0 0 1-3.614 1.807 4.512 4.512 0 0 1-3.614-1.807A4.512 4.512 0 0 1 6.63 7.23a4.51 4.51 0 0 1 3.614 1.807Z" clip-rule="evenodd"/><path fill="#2B2A45" d="M29.29 14.501v-9.31l1.129-.189-.073-.68-1.619.044-1.576-.043-.043.68 1.07.187v6.333l-.405-1.243-4.641-5.957-1.547.043-1.171-.043-.073.68 1.1.23v8.372l-1.128.188.072.68 1.633-.044 1.576.043.044-.68-1.07-.187v-7.49l.332 1.33 5.306 7.056h1.085Zm5.517-1.04.462 1.156 2.501-.506-.1-.68h-.695c-.13-.245-.188-.506-.188-1.084V9.542c0-1.691-.68-2.226-2.703-2.226l-3.008 1.229v1.214h1.808l.216-1.272a1.94 1.94 0 0 1 .882-.217c.506 0 .738.26.738 1.142v.824l-3.21 1.027c-.39.376-.65.853-.65 1.474 0 1.186.954 1.938 2.284 1.938l1.663-1.215Zm-1.2-.015c-.347 0-.738-.29-.738-.983 0-.333.101-.723.318-.955l1.533-.607v1.995l-.376.26c-.188.116-.448.29-.738.29Zm6.616.983 2.458.043.073-.708-1.532-.16v-3.05l.201-.231c.376-.434.738-.795 1.085-.954h1.475V7.388h-1.345L41.106 9.73l-.16-2.24-.78.043-1.894.419.072.708.853-.058v5.017l-.853.174.073.68 1.807-.044Zm6.312 0 2.458.043.072-.708-1.533-.16v-3.05l.203-.231c.376-.434.737-.795 1.084-.954h1.475V7.388h-1.345L47.417 9.73l-.16-2.24-.78.043-1.894.419.072.708.853-.058v5.017l-.853.174.073.68 1.807-.044Zm8.25-.969.462 1.157 2.502-.506-.102-.68h-.694c-.13-.245-.188-.506-.188-1.084V9.542c0-1.691-.679-2.226-2.703-2.226l-3.007 1.229v1.214h1.807l.217-1.272a1.94 1.94 0 0 1 .882-.217c.506 0 .737.26.737 1.142v.824l-3.21 1.027c-.39.376-.65.853-.65 1.474 0 1.186.954 1.938 2.284 1.938l1.663-1.215Zm-1.2-.014c-.347 0-.738-.29-.738-.983 0-.333.102-.723.319-.955l1.532-.607v1.995l-.376.26c-.188.116-.448.29-.737.29Zm9.756.202-.304-.65c-.506.274-.81.361-1.156.361-.39 0-.723-.361-.723-.896V8.588h1.937v-.78h-1.952V5.681h-.68l-1.315 1.07v.997h-.766l-.564.579v.26h1.316v3.802c0 1.533.766 2.285 2.284 2.285l1.923-1.027Zm3.176-7.446.188-.81-.1-.982-.464-.087-1.373.087-.174.824.102.968.477.102 1.344-.102Zm-.795 8.227 1.793.043.072-.68-.867-.173V7.49l-.897.044-2.038.404.072.68.839-.044v5.046l-.839.174.072.68 1.793-.044Zm6.739-.16 2.226-5.898.853-.173-.072-.68-1.142.029-1.345-.029-.072.68.68.173-1.605 4.887-.116-1.171-1.345-3.716.781-.173-.072-.68-1.648.043-1.923-.043-.073.68.723.173 2.588 6.304 1.562-.405Zm9.218-4.177c0-1.519-.78-2.776-2.805-2.776-2.66.694-3.47 2.168-3.47 3.903 0 2.097 1.519 3.456 3.514 3.456 1.156-.362 1.98-.723 2.747-1.388l-.318-.65c-.42.274-1.128.577-1.807.577-1.244 0-1.967-.983-2.053-2.327h4.192v-.795Zm-4.192.086c.072-1.3.477-1.952 1.156-1.952.795 0 1.012.723 1.012 1.822l-2.168.13Zm10.373 4.25 2.992.044c2.198-.303 3.832-1.113 3.832-2.92 0-1.417-1.056-2.43-3.094-2.53 1.532-.304 2.544-1.258 2.544-2.444 0-1.113-.838-2.27-2.646-2.255l-3.629.043-1.821-.043-.072.68 1.127.187v8.415l-1.127.188.072.68 1.822-.044Zm1.445-9.281.998-.101c1.128.014 1.59.723 1.59 1.72 0 1.114-.636 2.024-1.648 2.024h-.94V5.147Zm0 8.501v-4.15h1.142c1.258 0 1.996.883 1.996 2.083 0 .968-.535 2.154-2.183 2.154l-.955-.087Zm8.05.78 2.155.044.072-.694-1.127-.188v-8.4l1.127-.188-.072-.68-2.154.044-2.169-.043-.072.68 1.128.187v8.4l-1.128.188.072.694 2.169-.043Z"/></g><defs><clipPath id="a"><path fill="#fff" d="M0 0h100v18.072H0z"/></clipPath></defs></svg>
